X: 26504
T: Michael O'Connor
R: jig
M: 6/8
K: Cmajor
g|{a}g2 f {f}e2 c|dfd BGB|c3 cBA|Bcd G2 g|{f}e2 c ege|
fad BGB|c2 A dBG|c3 c2:|f|efg gec|gec c2 g|
f/g/aa afd|afd d2 f|efg gag|c'2 a geg|a2 d BGB|c3 c2||

